X: 570
T: Fly Around, My Pretty Little Miss
C:Traditional American
B: jims roots
M:C|
L:1/8
Q: 1/4=100
K:D
V:1 
"D"f2 e2d2B2|dedB A2 A2-|A2A2B2d2|[f2d2]>e2 [f2d2][(f2d2]|
"D"f2) e2 d2 B2|dedB A2 A2-|"A"A2A2BAcA|"D"[f2d2]>[e2d2] x[f4d4]:|
|:"D"a2a2f2a2|"G"b2>a2b2a2-|"D"a2a2agf2|"A"e4e2fg|
"D"a2a2f2a2|"G"b2>a2b2a2-|"A"a2aa gfe2|"D"[f2d2]>[e2d2] x[f4d4]:|
% abcbook-tune_id 6298c25ddf266a7b38c1b864


% abcbook-boost 0
% abcbook-tablature 
% abcbook-transpose 
% abcbook-lastupdated 1654178398030
% abcbook-soundfonts 
% abcbook-repeats 1


